svg/pencil_box_multiple_outline.svg

<svg xmlns="http://www.w3.org/2000/svg" viewBox="0 0 24 24"><path d="M4 6H2v14a2 2 0 0 0 2 2h14v-2H4zm14.7 1.35-1 1-2.05-2.05 1-1c.21-.22.56-.22.77 0l1.28 1.28c.22.21.22.56 0 .77M9 12.94l6.06-6.06 2.06 2.06L11.06 15H9zM20 4v12H8V4zm0-2H8c-1.1 0-2 .9-2 2v12c0 1.1.9 2 2 2h12c1.1 0 2-.9 2-2V4c0-1.1-.9-2-2-2"/></svg>

<?xml version="1.0" encoding="UTF-8"?><!DOCTYPE svg PUBLIC "-//W3C//DTD SVG 1.1//EN" "http://www.w3.org/Graphics/SVG/1.1/DTD/svg11.dtd"><svg xmlns="http://www.w3.org/2000/svg" xmlns:xlink="http://www.w3.org/1999/xlink" version="1.1" id="mdi-pencil-box-multiple-outline" width="24" height="24" viewBox="0 0 24 24"><path d="M4 6H2V20C2 21.11 2.9 22 4 22H18V20H4V6M18.7 7.35L17.7 8.35L15.65 6.3L16.65 5.3C16.86 5.08 17.21 5.08 17.42 5.3L18.7 6.58C18.92 6.79 18.92 7.14 18.7 7.35M9 12.94L15.06 6.88L17.12 8.94L11.06 15H9V12.94M20 4L20 4L20 16L8 16L8 4H20M20 2H8C6.9 2 6 2.9 6 4V16C6 17.1 6.9 18 8 18H20C21.1 18 22 17.1 22 16V4C22 2.9 21.1 2 20 2Z" /></svg>
